assets/icons/qvision/text_format.svg

<svg xmlns="http://www.w3.org/2000/svg" height="24" viewBox="0 0 24 24" width="24"><path d="M0 0h24v24H0z" fill="none"/><path d="M5 17v2h14v-2H5zm4.5-4.2h5l.9 2.2h2.1L12.75 4h-1.5L6.5 15h2.1l.9-2.2zM12 5.98L13.87 11h-3.74L12 5.98z"/></svg>

<svg width="24" height="24" viewBox="0 0 24 24" fill="none" xmlns="http://www.w3.org/2000/svg">
<g clip-path="url(#clip0_147_2285)">
<path d="M5 17V19H19V17H5ZM9.5 12.8H14.5L15.4 15H17.5L12.75 4H11.25L6.5 15H8.6L9.5 12.8ZM12 5.98L13.87 11H10.13L12 5.98Z" fill="#323232"/>
</g>
<defs>
<clipPath id="clip0_147_2285">
<rect width="24" height="24" fill="white"/>
</clipPath>
</defs>
</svg>
